X: 126
T: Pig Town Fling
R: reel
B: NEFR #126
Z: 1997 by John Chambers <jc:trillian.mit.edu>
M: C|
L: 1/8
K: G
|: "G"G2  ge d2 ed | "G"B2 ge "(D7)"dB AB | "G"G2  ge d2 ed | "G"BG "D7"AF "Em"GF "D7"ED |
|  "G"G2  ge d2 ed | "G"B2 ge "(D7)"dB AB | "G"G2  ge d2 ed |"D7"BG AF  "G"G4 :|
|:"Em"B e2 e e2 ge | "D"fg af  "Em" gf ed |"Em"B e2 e e2 ge | "D"fg af "Em"g2 b2 |
| "Em"B e2 B e3  g | "D"fg af  "Em" gf ed |"Em"B e2 B e2 ge | "D"fg af  "G"g4 :|
